remix/Logos/tumblr-fill.svg

<svg viewBox="0 0 24 24" fill="currentColor" xmlns="http://www.w3.org/2000/svg"><path d="M6.27051 7.62976C8.86829 7.07312 10.816 4.76401 10.816 2H13.8463V7.15152H17.4826V10.7879H13.8463V16.2424C13.8463 16.7566 14.044 17.4493 14.7554 17.9091C15.2296 18.2156 16.2397 18.3671 17.7857 18.3636V22H13.5432C11.0329 22 8.99778 19.9649 8.99778 17.4545V10.7879H6.27051V7.62976Z"/></svg>

<svg viewBox="0 0 24 24" xmlns="http://www.w3.org/2000/svg"><path fill="none" d="M0 0h24v24H0Z"/><path d="M6.27 7.63h0c2.65-.58 4.54-2.92 4.54-5.63h3.03v5.15h3.63v3.63h-3.64v5.45c0 .51.19 1.2.9 1.66 .47.3 1.48.45 3.03.45v3.63h-4.25v0c-2.52 0-4.55-2.04-4.55-4.55 -.01-.01-.01-.01-.01-.01v-6.67H6.22V7.58Z"/></svg>
